X: 37167
T: Sir Donat's Road
R: jig
M: 6/8
K: Fmajor
F2G|:A3 A2G|FAc d3|cdf dcA|cfA G2A|
FGA A2G|FAc d3|cdf A2G|1 F3 F2G:|2 F3 FAc||
|:d3 dcA|cfe d3|cdf gfg|(ga)g f2e|
d2f c2f|AGF GFE|CDF GAG|1 F3 FAc:|2 F3 F2G||

